X: 4518
T: Boolavogue
R: waltz
M: 3/4
K: Fmajor
A/G/|FC F2 Ac|d>c c2 d>c|AG F2 GA|GF D2 CD|
FC F2 Ac|d>c c2 d>c|A>G F2 GA|GF F3||
A|c>G f2 ed|d>c c2 d>c|AG F2 GA|GF D3 C/D/|
FC F2 Ac|f>e d2 fd|c>d A2 FA|G>F F3||

